X: 10032
Q: "Not too fast."
M: 2/4
L: 1/8
K: F
[|\
f2ec | fc zd | cAFA | {A}G2 zc |\
c>ce>e | f2 zd | cABG | {A}GF zc |\
(ca2) g | f3 d | c2A2 | G2 zc |
c2e2 | f3 d | (cA)(BA) | {A}GF zG |\
cGGc | {cd}e>dcc | fdec | eddz |\
cc/c/ eg | afHfz | eg/e/ d{a}g | {f}e{d}cHcc |
fcAd | cAFF | BGAF | AGGz |\


